icons/1_Primary/Posteo.svg

<svg width="1024" height="1024" fill="none" xmlns="http://www.w3.org/2000/svg"><g clip-path="url(#a)"><path d="M512 1024c282.77 0 512-229.23 512-512S794.77 0 512 0 0 229.23 0 512s229.23 512 512 512Z" fill="#98DC9A"/><path d="m213.33 486.35-28.26 110.43L164.2 599l28.26-110.43 20.87-2.22Zm38.26-4.78-28.7 110.86 20.87-2.17L272 479.39s-20.42 3.05-20.42 2.18h.01Zm100.86 9.13a30.57 30.57 0 0 0-8.7-9.56 36.341 36.341 0 0 0-13.48-5.22 82.482 82.482 0 0 0-18.26-.43l-30 3 12.17 105.64 23-2.61-3.91-37.39 5.22-.43c8.26-.87 15.22-2.17 20-4.78 5.22-2.61 9.56-5.65 12.17-9.13a26.114 26.114 0 0 0 5.65-12.17c.794-4.449.939-8.989.43-13.48-.82-5.14-2.12-9.96-4.29-13.44Zm-44.78 3.91 5.65-.43c6.09-.43 11.3 0 14.35 2.17 3.05 2.17 5.22 6.09 5.65 11.3.43 5.21-.87 10-3.48 12.61-3 2.61-7.83 4.78-14.35 5.22l-4.35.43-3.47-31.3Zm155.21-4.35A47.718 47.718 0 0 0 452 474.18a32.001 32.001 0 0 0-16.09-9.56 61.09 61.09 0 0 0-22.17-1.3c-8.26 1.3-15.65 3.48-21.3 6.52a38.844 38.844 0 0 0-13.91 12.61 48.458 48.458 0 0 0-7 18.26 77.814 77.814 0 0 0-.43 22.61 83.019 83.019 0 0 0 5.22 22.17 47.726 47.726 0 0 0 10.87 16.09 32.001 32.001 0 0 0 16.09 9.56 61.092 61.092 0 0 0 22.17 1.3c8.7-1.3 15.65-3 21.3-6.52a38.835 38.835 0 0 0 13.95-12.62 53.654 53.654 0 0 0 7-18.69 96.731 96.731 0 0 0 .43-22.61 99.574 99.574 0 0 0-5.26-21.74h.01Zm-68.26 29.56c-.87-5.65-1.3-10.43 0-14.78a33.363 33.363 0 0 1 3-11.74 19.105 19.105 0 0 1 7-8.26c2.61-2.17 6.52-3 10.87-3.48a23.229 23.229 0 0 1 11.3 1.3 22.888 22.888 0 0 1 8.7 6.52 50.705 50.705 0 0 1 5.65 10.87 68.127 68.127 0 0 1 3 14.78 60.969 60.969 0 0 1 .43 15.22 33.342 33.342 0 0 1-3 11.74 20.528 20.528 0 0 1-7 7.83c-3 2.17-7 3-11.3 3.48A23.23 23.23 0 0 1 412 552c-3.91-1.74-6.09-3.91-8.7-6.52a36.631 36.631 0 0 1-5.65-10.87 68.115 68.115 0 0 1-3-14.78l-.03-.01Zm153.9-3.91a21.637 21.637 0 0 0-6.52-7.39 25.629 25.629 0 0 0-9.56-5.22c-3.48-.87-7.39-2.17-11.3-3.48a72.502 72.502 0 0 1-8.7-2.61c-2.17-.87-3.91-1.74-5.65-2.61a11.734 11.734 0 0 1-3.48-3c-.87-.87-1.3-2.61-1.74-4.35a10.004 10.004 0 0 1 1.3-8.7 11.538 11.538 0 0 1 8.26-4.78 21.795 21.795 0 0 1 5.22-.87c1.3-.43 3.48 0 5.22 0 1.894-.09 3.792.054 5.65.43 2.61 0 4.78.87 7 1.3l3.48-19.13c-3-.43-5.65-1.3-8.26-1.74a48.007 48.007 0 0 0-7.83-.87h-7.83c-2.631.05-5.252.342-7.83.87a32.86 32.86 0 0 0-13.48 4.35c-3.91 2.61-7.39 5.22-9.56 8.26a30.716 30.716 0 0 0-4.78 10.87 32.924 32.924 0 0 0 0 13c.87 4.35 2.17 8.69 4.78 11.74 3 3 5.22 5.65 8.26 7.39a43.504 43.504 0 0 0 9.13 4.35c3 .87 5.65 1.74 8.26 2.61a37.845 37.845 0 0 1 8.26 2.17c2.17 1.3 4.35 2.17 6.09 3a11.846 11.846 0 0 1 4.35 3.48 16.055 16.055 0 0 1 2.17 4.78v4.35a15.433 15.433 0 0 1-1.74 3.91c-.87 1.3-2.61 2.17-3.91 3a22.899 22.899 0 0 1-6.52 2.17 50 50 0 0 1-7.83.43 47.246 47.246 0 0 1-7.83-.43c-2.61 0-5.22-.87-7.83-1.3a50.53 50.53 0 0 1-7.83-1.74l3.91 20.87a54.653 54.653 0 0 0 14.35 2.17 89.96 89.96 0 0 0 15.22-1.3 62.24 62.24 0 0 0 15.22-5.22 39.852 39.852 0 0 0 10.36-8.15 25.288 25.288 0 0 0 5.22-10.87c.865-4.29.865-8.71 0-13-.83-4.39-2.14-7.87-1.7-8.74Zm50-53.47 27-2.61-1.74-18.69-77.39 8.7 2.17 18.69 27-2.61L585 553.3l23-2.61s-9.48-87.38-9.48-88.25Zm110.43 59.13-39.56 4.35-3-27.39 36.52-3.91-2.17-18.69-36.52 4.35-2.61-23.48 39.56-4.35-2.17-18.69-62.6 7 12.17 106.08 62.6-7-2.22-18.27Zm107.38-47.39c-.87-8.26-3-15.22-5.22-21.74a47.711 47.711 0 0 0-10.87-16.09 32.001 32.001 0 0 0-16.09-9.56 61.09 61.09 0 0 0-22.17-1.3c-8.26 1.3-15.65 3.48-21.3 6.52a38.844 38.844 0 0 0-13.91 12.61 48.458 48.458 0 0 0-7 18.26 77.814 77.814 0 0 0-.43 22.61 83.019 83.019 0 0 0 5.22 22.17 47.711 47.711 0 0 0 10.87 16.09 32.001 32.001 0 0 0 16.09 9.56c6.52 1.74 13.48 2.17 22.17 1.3 8.7-1.3 15.65-3 21.3-6.52a38.827 38.827 0 0 0 13.91-12.61 53.654 53.654 0 0 0 7-18.69 96.731 96.731 0 0 0 .43-22.61Zm-73.47 8.26a42.032 42.032 0 0 1 0-14.78 33.363 33.363 0 0 1 3-11.74 19.105 19.105 0 0 1 7-8.26c2.61-2.17 6.52-3 10.87-3.48 3.816-.51 7.7-.063 11.3 1.3a22.888 22.888 0 0 1 8.7 6.52 50.705 50.705 0 0 1 5.65 10.87 110.049 110.049 0 0 1 3 14.78 60.967 60.967 0 0 1 .43 15.22 33.342 33.342 0 0 1-3 11.74 20.528 20.528 0 0 1-7 7.83c-3 2.17-7 3-11.3 3.48a23.911 23.911 0 0 1-11.3-1.3c-3.91-1.74-6.09-3.91-8.7-6.52a50.658 50.658 0 0 1-5.65-10.87 68.115 68.115 0 0 1-3-14.78v-.01Zm90.86 31.74a13 13 0 1 0 26.002.018 13 13 0 0 0-26.002-.028v.01Z" fill="#fff"/></g><defs><clipPath id="a"><path fill="#fff" d="M0 0h1024v1024H0z"/></clipPath></defs></svg>

<svg width="1024" height="1024" viewBox="0 0 1024 1024" fill="none" xmlns="http://www.w3.org/2000/svg">
<g clip-path="url(#clip0_2_3186)">
<path d="M512 1024C794.77 1024 1024 794.77 1024 512C1024 229.23 794.77 0 512 0C229.23 0 0 229.23 0 512C0 794.77 229.23 1024 512 1024Z" fill="#98DC9A"/>
<path d="M213.33 486.35L185.07 596.78L164.2 599L192.46 488.57L213.33 486.35ZM251.59 481.57L222.89 592.43L243.76 590.26L272 479.39C272 479.39 251.58 482.44 251.58 481.57H251.59ZM352.45 490.7C350.265 486.93 347.298 483.67 343.75 481.14C339.652 478.515 335.068 476.74 330.27 475.92C324.218 475.101 318.094 474.957 312.01 475.49L282.01 478.49L294.18 584.13L317.18 581.52L313.27 544.13L318.49 543.7C326.75 542.83 333.71 541.53 338.49 538.92C343.71 536.31 348.05 533.27 350.66 529.79C353.571 526.295 355.519 522.099 356.31 517.62C357.104 513.171 357.249 508.631 356.74 504.14C355.92 499 354.62 494.18 352.45 490.7ZM307.67 494.61L313.32 494.18C319.41 493.75 324.62 494.18 327.67 496.35C330.72 498.52 332.89 502.44 333.32 507.65C333.75 512.86 332.45 517.65 329.84 520.26C326.84 522.87 322.01 525.04 315.49 525.48L311.14 525.91L307.67 494.61ZM462.88 490.26C460.394 484.211 456.69 478.738 452 474.18C447.709 469.461 442.106 466.132 435.91 464.62C428.662 462.836 421.148 462.395 413.74 463.32C405.48 464.62 398.09 466.8 392.44 469.84C386.842 472.843 382.066 477.172 378.53 482.45C374.98 487.998 372.598 494.211 371.53 500.71C370.286 508.186 370.142 515.803 371.1 523.32C371.813 530.915 373.57 538.375 376.32 545.49C378.803 551.542 382.502 557.018 387.19 561.58C391.481 566.299 397.084 569.628 403.28 571.14C410.529 572.924 418.043 573.365 425.45 572.44C434.15 571.14 441.1 569.44 446.75 565.92C452.364 562.92 457.155 558.586 460.7 553.3C464.182 547.562 466.556 541.223 467.7 534.61C468.727 527.116 468.871 519.528 468.13 512C467.199 504.579 465.434 497.286 462.87 490.26H462.88ZM394.62 519.82C393.75 514.17 393.32 509.39 394.62 505.04C394.895 500.976 395.912 496.997 397.62 493.3C399.108 489.929 401.539 487.061 404.62 485.04C407.23 482.87 411.14 482.04 415.49 481.56C419.306 481.05 423.189 481.497 426.79 482.86C430.172 484.303 433.156 486.54 435.49 489.38C437.806 492.762 439.703 496.412 441.14 500.25C442.684 505.05 443.69 510.008 444.14 515.03C444.919 520.066 445.063 525.179 444.57 530.25C444.295 534.314 443.279 538.293 441.57 541.99C439.955 545.163 437.543 547.861 434.57 549.82C431.57 551.99 427.57 552.82 423.27 553.3C419.464 553.805 415.592 553.358 412 552C408.09 550.26 405.91 548.09 403.3 545.48C400.82 542.2 398.91 538.525 397.65 534.61C396.106 529.81 395.1 524.853 394.65 519.83L394.62 519.82ZM548.52 515.91C546.944 512.978 544.713 510.449 542 508.52C539.224 506.115 535.964 504.335 532.44 503.3C528.96 502.43 525.05 501.13 521.14 499.82C518.189 499.133 515.283 498.261 512.44 497.21C510.27 496.34 508.53 495.47 506.79 494.6C505.444 493.839 504.261 492.82 503.31 491.6C502.44 490.73 502.01 488.99 501.57 487.25C501.109 485.797 500.987 484.257 501.212 482.749C501.438 481.242 502.005 479.805 502.87 478.55C503.826 477.21 505.058 476.091 506.483 475.266C507.908 474.442 509.492 473.932 511.13 473.77C512.828 473.269 514.581 472.977 516.35 472.9C517.65 472.47 519.83 472.9 521.57 472.9C523.464 472.81 525.362 472.954 527.22 473.33C529.83 473.33 532 474.2 534.22 474.63L537.7 455.5C534.7 455.07 532.05 454.2 529.44 453.76C526.858 453.256 524.24 452.965 521.61 452.89H513.78C511.149 452.94 508.528 453.232 505.95 453.76C501.194 454.213 496.594 455.697 492.47 458.11C488.56 460.72 485.08 463.33 482.91 466.37C480.625 469.648 479.001 473.34 478.13 477.24C477.266 481.53 477.266 485.95 478.13 490.24C479 494.59 480.3 498.93 482.91 501.98C485.91 504.98 488.13 507.63 491.17 509.37C494.034 511.17 497.098 512.63 500.3 513.72C503.3 514.59 505.95 515.46 508.56 516.33C511.387 516.74 514.158 517.467 516.82 518.5C518.99 519.8 521.17 520.67 522.91 521.5C524.616 522.298 526.108 523.491 527.26 524.98C528.241 526.444 528.974 528.059 529.43 529.76V534.11C529.034 535.488 528.449 536.804 527.69 538.02C526.82 539.32 525.08 540.19 523.78 541.02C521.728 542.067 519.53 542.799 517.26 543.19C514.665 543.538 512.047 543.682 509.43 543.62C506.813 543.694 504.194 543.55 501.6 543.19C498.99 543.19 496.38 542.32 493.77 541.89C491.118 541.518 488.5 540.937 485.94 540.15L489.85 561.02C494.516 562.378 499.342 563.108 504.2 563.19C509.301 563.189 514.393 562.754 519.42 561.89C524.698 560.816 529.814 559.061 534.64 556.67C538.522 554.547 542.023 551.793 545 548.52C547.591 545.371 549.382 541.641 550.22 537.65C551.085 533.36 551.085 528.94 550.22 524.65C549.39 520.26 548.08 516.78 548.52 515.91ZM598.52 462.44L625.52 459.83L623.78 441.14L546.39 449.84L548.56 468.53L575.56 465.92L585 553.3L608 550.69C608 550.69 598.52 463.31 598.52 462.44ZM708.95 521.57L669.39 525.92L666.39 498.53L702.91 494.62L700.74 475.93L664.22 480.28L661.61 456.8L701.17 452.45L699 433.76L636.4 440.76L648.57 546.84L711.17 539.84L708.95 521.57ZM816.33 474.18C815.46 465.92 813.33 458.96 811.11 452.44C808.628 446.388 804.928 440.912 800.24 436.35C795.949 431.631 790.346 428.302 784.15 426.79C776.902 425.006 769.388 424.565 761.98 425.49C753.72 426.79 746.33 428.97 740.68 432.01C735.082 435.013 730.306 439.342 726.77 444.62C723.22 450.168 720.838 456.381 719.77 462.88C718.526 470.356 718.382 477.973 719.34 485.49C720.053 493.085 721.81 500.545 724.56 507.66C727.042 513.712 730.742 519.188 735.43 523.75C739.721 528.469 745.324 531.798 751.52 533.31C758.04 535.05 765 535.48 773.69 534.61C782.39 533.31 789.34 531.61 794.99 528.09C800.588 525.088 805.365 520.758 808.9 515.48C812.382 509.742 814.756 503.403 815.9 496.79C816.927 489.296 817.071 481.708 816.33 474.18ZM742.86 482.44C741.987 477.552 741.987 472.548 742.86 467.66C743.135 463.596 744.152 459.617 745.86 455.92C747.348 452.549 749.779 449.681 752.86 447.66C755.47 445.49 759.38 444.66 763.73 444.18C767.546 443.67 771.43 444.117 775.03 445.48C778.412 446.923 781.396 449.16 783.73 452C786.046 455.382 787.943 459.032 789.38 462.87C790.717 467.722 791.719 472.661 792.38 477.65C793.159 482.685 793.303 487.799 792.81 492.87C792.535 496.934 791.519 500.913 789.81 504.61C788.195 507.783 785.783 510.481 782.81 512.44C779.81 514.61 775.81 515.44 771.51 515.92C767.694 516.402 763.818 515.956 760.21 514.62C756.3 512.88 754.12 510.71 751.51 508.1C749.194 504.719 747.297 501.069 745.86 497.23C744.316 492.43 743.31 487.473 742.86 482.45V482.44ZM833.72 514.18C833.72 516.751 834.483 519.265 835.911 521.402C837.34 523.54 839.37 525.207 841.745 526.19C844.121 527.174 846.735 527.432 849.256 526.93C851.778 526.429 854.095 525.19 855.913 523.372C857.731 521.554 858.969 519.238 859.47 516.716C859.972 514.194 859.715 511.581 858.731 509.205C857.747 506.83 856.08 504.799 853.943 503.371C851.805 501.942 849.291 501.18 846.72 501.18C843.274 501.18 839.969 502.548 837.531 504.984C835.094 507.42 833.723 510.724 833.72 514.17V514.18Z" fill="white"/>
</g>
<defs>
<clipPath id="clip0_2_3186">
<rect width="1024" height="1024" fill="white"/>
</clipPath>
</defs>
</svg>
